assets/icons/snapcraft/important.svg

<?xml version="1.0" encoding="UTF-8" standalone="no"?>
<svg
   viewBox="0 0 24 24"
   width="24"
   height="24"
   fill="#808080"
   version="1.1"
   id="svg10"
   sodipodi:docname="info.svg"
   inkscape:version="1.2 (1:1.2.1+202207142221+cd75a1ee6d)"
   xmlns:inkscape="http://www.inkscape.org/namespaces/inkscape"
   xmlns:sodipodi="http://sodipodi.sourceforge.net/DTD/sodipodi-0.dtd"
   xmlns="http://www.w3.org/2000/svg"
   xmlns:svg="http://www.w3.org/2000/svg">
  <defs
     id="defs14" />
  <sodipodi:namedview
     id="namedview12"
     pagecolor="#ffffff"
     bordercolor="#666666"
     borderopacity="1.0"
     inkscape:pageshadow="2"
     inkscape:pageopacity="0.0"
     inkscape:pagecheckerboard="0"
     showgrid="true"
     inkscape:zoom="12.046875"
     inkscape:cx="39.263294"
     inkscape:cy="1.7016861"
     inkscape:window-width="1920"
     inkscape:window-height="1016"
     inkscape:window-x="0"
     inkscape:window-y="0"
     inkscape:window-maximized="1"
     inkscape:current-layer="svg10"
     inkscape:showpageshadow="2"
     inkscape:deskcolor="#d1d1d1">
    <inkscape:grid
       type="xygrid"
       id="grid16" />
  </sodipodi:namedview>
  <path
     id="path398"
     style="opacity:1;fill:#808080;fill-rule:evenodd;stroke:none;stroke-width:2;stroke-linecap:round;stroke-linejoin:round"
     d="M 17.5 13 A 4.5 4.5 0 0 0 13 17.5 A 4.5 4.5 0 0 0 17.5 22 A 4.5 4.5 0 0 0 22 17.5 A 4.5 4.5 0 0 0 17.5 13 z M 17 15 L 18 15 L 18 17 L 17.800781 18 L 17.199219 18 L 17 17 L 17 15 z M 17.5 19 A 0.5 0.5 0 0 1 18 19.5 A 0.5 0.5 0 0 1 17.5 20 A 0.5 0.5 0 0 1 17 19.5 A 0.5 0.5 0 0 1 17.5 19 z " />
  <path
     d="m 2,2 10,3.75 v 6.25 z"
     id="path2"
     style="stroke-width:1.25" />
  <path
     d="m 12.375,14.125 -7.875,7.875 5.25,-10.5 z"
     id="path4"
     style="stroke-width:1.25" />
  <path
     d="m 13.25,6.9325 v 6.3175 l 4.59375,-4.59375 z"
     id="path6"
     style="stroke-width:1.25" />
  <path
     d="m 13.25,5.75 h 7.5 l 1.25,3.28125 z"
     id="path8"
     style="stroke-width:1.25" />
</svg>

<svg width="24" height="24" fill="gray" xmlns="http://www.w3.org/2000/svg"><path style="opacity:1;fill:gray;stroke:none;stroke-width:2;stroke-linecap:round;stroke-linejoin:round" d="M17.5 13a4.5 4.5 0 0 0-4.5 4.5 4.5 4.5 0 0 0 4.5 4.5 4.5 4.5 0 0 0 4.5-4.5 4.5 4.5 0 0 0-4.5-4.5zm-.5 2h1v2l-.2 1h-.6l-.2-1v-2zm.5 4a.5.5 0 0 1 .5.5.5.5 0 0 1-.5.5.5.5 0 0 1-.5-.5.5.5 0 0 1 .5-.5z"/><path d="m2 2 10 3.75V12zm10.375 12.125L4.5 22l5.25-10.5zm.875-7.192v6.317l4.594-4.594zm0-1.183h7.5L22 9.031z" style="stroke-width:1.25"/></svg>
